icons/verilog.svg

<!--
  - The MIT License (MIT)
  -
  - Copyright (c) 2015-2024 Elior "Mallowigi" Boukhobza
  -
  - Permission is hereby granted, free of charge, to any person obtaining a copy
  - of this software and associated documentation files (the "Software"), to deal
  - in the Software without restriction, including without limitation the rights
  - to use, copy, modify, merge, publish, distribute, sublicense, and/or sell
  - copies of the Software, and to permit persons to whom the Software is
  - furnished to do so, subject to the following conditions:
  -
  - The above copyright notice and this permission notice shall be included in all
  - copies or substantial portions of the Software.
  -
  - THE SOFTWARE IS PROVIDED "AS IS", WITHOUT WARRANTY OF ANY KIND, EXPRESS OR
  - IMPLIED, INCLUDING BUT NOT LIMITED TO THE WARRANTIES OF MERCHANTABILITY,
  - FITNESS FOR A PARTICULAR PURPOSE AND NONINFRINGEMENT. IN NO EVENT SHALL THE
  - AUTHORS OR COPYRIGHT HOLDERS BE LIABLE FOR ANY CLAIM, DAMAGES OR OTHER
  - LIABILITY, WHETHER IN AN ACTION OF CONTRACT, TORT OR OTHERWISE, ARISING FROM,
  - OUT OF OR IN CONNECTION WITH THE SOFTWARE OR THE USE OR OTHER DEALINGS IN THE
  - SOFTWARE.
  -
  -->

<svg version="1.1" xmlns="http://www.w3.org/2000/svg" viewBox="0 0 512 512" width="16px" height="16px">
  <path fill="#96C53A" data-iconColor="Verilog"
        d="M19.3160725,346.6036682l0.000103-176.7707062c0.0000076-12.02948,9.7518291-21.7812805,21.7813015-21.7812653l429.8051758,0.0001831c12.02948,0,21.7812805,9.7518158,21.7812805,21.7812958l-0.0000916,176.7707062c-0.0000305,12.02948-9.7518311,21.7812805-21.781311,21.7812805l-429.8051758-0.0001831C29.067873,368.3849487,19.3160648,358.6331482,19.3160725,346.6036682z M468.0602722,192.0001068c0-10.6860657-8.6627502-19.3488312-19.3488159-19.3488464c-10.6860962,0-19.3488464,8.6627655-19.348877,19.3488312c0,10.6860657,8.6627808,19.3488312,19.3488464,19.3488464C459.3974915,211.348938,468.0602722,202.6861725,468.0602722,192.0001068z M455.9638367,139.70224V90.7910004l-68.956604-0.0000839l-0.0000305,48.9112473L455.9638367,139.70224z M387.0072632,378.1099243l-0.0000305,43.8434143l68.9566345,0.0001221v-43.8434143L387.0072632,378.1099243z M440.4622803,81.1164017l-4.344635-81.1162567l-28.519928-0.0000167l-5.0889282,81.1162567L440.4622803,81.1164017z M402.508606,430.883728l5.0888062,81.1162415L436.1173401,512l4.3447266-81.1162415L402.508606,430.883728z M346.6929016,139.7021179l0.0000305-48.9112473l-68.9566345-0.0000763v48.9112473L346.6929016,139.7021179z M277.7363281,378.1097717l-0.0000305,43.8434143l68.9566345,0.0000916l0.0000305-43.8434143L277.7363281,378.1097717z M331.1913757,81.1163406l-4.344635-81.1162643l-28.5199585-0.0000167l-5.0888977,81.1162567L331.1913757,81.1163406z M293.2376709,430.883667l5.0888062,81.1162415l28.5199585,0.0000305l4.3447266-81.1162415L293.2376709,430.883667z M237.4219971,139.7019958l0.0000305-48.9112473l-68.9566345-0.0000839l-0.0000153,48.9112396L237.4219971,139.7019958z M168.4654236,378.1095886l-0.0000305,43.8434143l68.9566345,0.0001221l0.0000305-43.8434143L168.4654236,378.1095886z M221.9204559,81.1162796l-4.3446198-81.1162643L189.0558777,0l-5.088913,81.1162567L221.9204559,81.1162796z M183.9667664,430.883606l5.0888062,81.1162415l28.5199585,0.0000305l4.3447266-81.116272H183.9667664z M128.1510925,139.7019958l0.0000153-48.9112473l-68.9566269-0.0000839l-0.0000229,48.9112396L128.1510925,139.7019958z M59.1945114,378.1095886l-0.0000267,43.8434143l68.9566345,0.0001221l0.0000153-43.8434143L59.1945114,378.1095886z M112.6495438,81.1162796l-4.3446274-81.1162643L79.7849655,0l-5.088913,81.1162567L112.6495438,81.1162796z M74.6958542,430.883606l5.0888138,81.1162415l28.5199509,0.0000305l4.3447266-81.116272H74.6958542z"/>
</svg>

<svg xmlns="http://www.w3.org/2000/svg" viewBox="0 0 512 512"><path fill="#96c53a" d="M19.316 346.604V169.833c0-12.03 9.752-21.781 21.781-21.781h429.806c12.03 0 21.78 9.752 21.78 21.781v176.77c0 12.03-9.751 21.782-21.78 21.782H41.097c-12.03 0-21.78-9.752-21.78-21.781M468.06 192c0-10.686-8.662-19.349-19.349-19.349s-19.348 8.663-19.348 19.35c0 10.685 8.662 19.348 19.348 19.348s19.35-8.663 19.35-19.349m-12.096-52.298V90.791h-68.957v48.911zM387.007 378.11v43.843h68.957V378.11zm53.455-296.994L436.118 0h-28.52l-5.09 81.116zM402.51 430.884 407.597 512h28.52l4.345-81.116zm-55.816-291.182V90.791h-68.957v48.911zM277.736 378.11v43.843h68.957V378.11zm53.455-296.994L326.847 0h-28.52l-5.09 81.116zm-37.953 349.768L298.326 512h28.52l4.345-81.116zm-55.816-291.182V90.791h-68.957v48.91zM168.465 378.11v43.843h68.957V378.11zM221.92 81.116 217.576 0h-28.52l-5.089 81.116zm-37.953 349.768L189.056 512h28.52l4.344-81.116zM128.15 139.702V90.791H59.194v48.91zM59.195 378.11v43.843h68.956V378.11zM112.65 81.116 108.305 0h-28.52l-5.089 81.116zM74.696 430.884 79.785 512h28.52l4.344-81.116z" data-iconColor="Verilog"/></svg>
